X: 20501
M: 2/4
L: 1/16
K: F
V: 1 staves=3
c2 |\
cBcA FAcf | fege cdcB | cBdB BAcA | AGBG FEDC |\
cBcA FAcf | fege cegb | baag gfeg | f2a2f2 :|
|:\
cBdB FAcf | fege cegb | baag gfeg | f2a2f2 :|
V: 2
z2 |\
|: z2 |\
EDEC G,CEG | GFAF CFAc | BdAc BdAc | Begf edcB |\
V: 3 clef=bass middle=d
z2 |\
f4 f4 | f4 f4 | b4 a4 | B4 c4 |\
f4 f4 | f4 c4 | f4 c4 | f2c2f2 :|
|: z2 |\
c4 c4 | B4 f4 | b4 b4 | B4 B4 |\
f4 f4 | c4 c4 | b4 b4 | f2c2f2 :|


